assets/imgs/Exclude.svg

<svg xmlns="http://www.w3.org/2000/svg" width="647" height="568" fill="none"><path fill="#CED4DA" fill-rule="evenodd" d="M64 0C28.654 0 0 28.654 0 64V0zm519 0c35.346 0 64 28.654 64 64V0zm64 144c0 35.346-28.654 64-64 64h-88c-35.346 0-64 28.654-64 64v232c0 35.346-28.654 64-64 64h280zM64 568c-35.346 0-64-28.654-64-64v64z" clip-rule="evenodd"/></svg>

<svg width="647" height="568" viewBox="0 0 647 568" fill="none" xmlns="http://www.w3.org/2000/svg">
<path fill-rule="evenodd" clip-rule="evenodd" d="M64 0C28.6538 0 0 28.6538 0 64V0H64ZM583 0C618.346 0 647 28.6538 647 64V0H583ZM647 144C647 179.346 618.346 208 583 208H495C459.654 208 431 236.654 431 272V504C431 539.346 402.346 568 367 568H647V144ZM64 568C28.6538 568 0 539.346 0 504V568H64Z" fill="#CED4DA"/>
</svg>
